app/img/headpic.svg

<?xml version="1.0" encoding="UTF-8"?>
<svg width="320" height="56" viewBox="0 0 320 56" version="1.1" xmlns="http://www.w3.org/2000/svg" xmlns:xlink="http://www.w3.org/1999/xlink">
    <defs>
        <linearGradient x1="6.37551839%" y1="73.6334441%" x2="93.9875137%" y2="27.0493199%" id="linearGradient-1">
            <stop stop-color="#F7AB42" offset="0%"></stop>
            <stop stop-color="#FBA093" offset="100%"></stop>
        </linearGradient>
    </defs>
    <g id="Mobile" stroke="none" stroke-width="1" fill="none" fill-rule="evenodd">
        <g id="Goody_mobile_registration-Copy-2">
            <g id="Group-4" transform="translate(-14.000000, -103.000000)">
                <path d="M334,61.324532 L334,156 L14,156 L14,89.1654686 C38.3984004,99.4173907 72.125075,97.6205036 115.180024,83.7748072 C179.762447,63.0062627 204.102319,49.2868805 261.683729,52.4539556 C300.071336,54.565339 324.17676,57.5221978 334,61.324532 Z" id="Path-2" fill="#D8D8D8" opacity="0.36" transform="translate(174.000000, 104.000000) rotate(-180.000000) translate(-174.000000, -104.000000) "></path>
                <path d="M329.257921,150.178498 C325.258772,169.003632 325.551597,167.625221 323.815047,175.799661 C323.533476,177.125094 323.706204,176.312015 322.984938,179.707218 C322.512389,181.931641 322.349826,182.649928 322.235717,183.234016 C322.191346,183.461138 322.140201,183.683638 322.072994,184 C290.644608,182.244005 262.731904,177.560584 239.237729,172.658825 C145.85279,153.175252 128.718631,109.797673 17.8675781,98.6177111 C17.1045218,98.5407525 13.7097002,98.6170062 13.0588341,98.318589 C12.8636618,98.2291039 13.2079864,97.7306698 13.3108251,97.1323952 C13.5762448,95.5882896 14.1865142,93.0397225 14.2695084,92.6195992 C14.8255367,89.80494 15.6341337,85.9581931 16.5862499,81.5088399 C17.4469503,77.4866837 18.4249334,72.9720825 19.439641,68.2823075 C20.2695126,64.4468072 21.0767046,60.5860833 21.9010832,56.6955955 C22.3612485,54.5239382 22.874643,52.2712855 23.2849255,50.1814542 C24.186413,45.5896012 25.3115816,41.1002127 26.0197267,37.3079633 C26.2163444,36.2550386 26.4260492,35.3360567 26.595648,34.3917419 C26.6566317,34.052189 26.9040247,33.5869652 26.8748024,33.2828772 C26.8395877,32.9164309 24.3307163,32.7418098 29.3494375,33.809174 C34.3681586,34.8765383 38.6633196,35.7900183 48.724491,37.9297935 C66.492704,41.7086757 95.9543416,47.6617754 92.5093558,47.2418074 C83.0513904,46.0888149 165.548272,63.6339668 340,99.8772632 C335.504713,120.86133 331.924019,137.628409 329.257921,150.178498 Z" id="Path-9" fill="url(#linearGradient-1)" transform="translate(176.500000, 108.500000) rotate(-12.000000) translate(-176.500000, -108.500000) "></path>
            </g>
        </g>
    </g>
</svg>

<svg width="320" height="56" xmlns="http://www.w3.org/2000/svg"><defs><linearGradient x1="6.3755%" y1="73.6334%" x2="93.9875%" y2="27.0493%" id="a"><stop stop-color="#F7AB42" offset="0%"/><stop stop-color="#FBA093" offset="100%"/></linearGradient></defs><g fill="none" fill-rule="evenodd"><path d="M0 43.6755V-51h320v66.8345c-24.3984-10.2519-58.125-8.455-101.18 5.3907-64.5824 20.7685-88.9223 34.488-146.5037 31.3208C33.9287 50.4347 9.8233 47.4778 0 43.6755z" fill="#D8D8D8" opacity=".36"/><path d="M329.258 150.1785l-5.443 25.6212-.83 3.9075c-.4726 2.2244-.6352 2.9427-.7493 3.5268-.0444.2271-.0955.4496-.1627.766-31.4284-1.756-59.3411-6.4394-82.8353-11.3412-93.385-19.4835-110.519-62.8611-221.3701-74.041-.763-.077-4.1579-.0008-4.8088-.2992-.1951-.0895.1492-.588.252-1.1862.2654-1.5441.8757-4.0927.9587-4.5128.556-2.8147 1.3646-6.6614 2.3167-11.1108.8608-4.0221 1.8387-8.5367 2.8534-13.2265.83-3.8355 1.6371-7.6962 2.4615-11.5867.4601-2.1717.9735-4.4243 1.3838-6.5141.9015-4.5919 2.0267-9.0813 2.7348-12.8735.1966-1.053.4063-1.972.576-2.9163.061-.3395.3083-.8047.2791-1.1088-.0352-.3665-2.544-.541 2.4746.5263l19.375 4.1206c17.7683 3.7789 47.23 9.732 43.785 9.312C83.0514 46.0888 165.5483 63.634 340 99.8773c-4.4953 20.984-8.076 37.7511-10.742 50.3012z" fill="url(#a)" transform="rotate(-12 -320.4898 123.6006)"/></g></svg>
